cartflows/admin-core/assets/images/plugins/cpsw.svg

<svg width="40" height="40" viewBox="0 0 40 40" fill="none" xmlns="http://www.w3.org/2000/svg">
<rect width="40" height="40" fill="#6736A1"/>
<path fill-rule="evenodd" clip-rule="evenodd" d="M35.0003 10.4672C35.0003 8.32835 33.9669 6.64062 31.9919 6.64062C30.0086 6.64062 28.8086 8.32835 28.8086 10.4505C28.8086 12.9654 30.2253 14.2354 32.2586 14.2354C33.2503 14.2354 34.0003 14.0098 34.5669 13.6923V12.0213C34.0003 12.3054 33.3503 12.4808 32.5253 12.4808C31.7169 12.4808 31.0003 12.1967 30.9086 11.2109H34.9836C34.9836 11.1022 35.0003 10.6678 35.0003 10.4672ZM30.8836 9.67352C30.8836 8.72939 31.4586 8.33671 31.9836 8.33671C32.4919 8.33671 33.0336 8.72939 33.0336 9.67352H30.8836Z" fill="white"/>
<path fill-rule="evenodd" clip-rule="evenodd" d="M25.5906 6.64062C24.774 6.64062 24.249 7.02496 23.9573 7.29232L23.849 6.77431H22.0156V16.5163L24.099 16.0735L24.1073 13.709C24.4073 13.9262 24.849 14.2354 25.5823 14.2354C27.074 14.2354 28.4323 13.0323 28.4323 10.3837C28.424 7.96073 27.049 6.64062 25.5906 6.64062ZM25.0906 12.3973C24.599 12.3973 24.3073 12.2218 24.1073 12.0046L24.099 8.90485C24.3156 8.66255 24.6156 8.49545 25.0906 8.49545C25.849 8.49545 26.374 9.34767 26.374 10.4422C26.374 11.5618 25.8573 12.3973 25.0906 12.3973Z" fill="white"/>
<path fill-rule="evenodd" clip-rule="evenodd" d="M19.1494 6.14725L21.2411 5.69608V4L19.1494 4.44282V6.14725Z" fill="white"/>
<path d="M21.2411 6.78223H19.1494V14.0929H21.2411V6.78223Z" fill="white"/>
<path fill-rule="evenodd" clip-rule="evenodd" d="M16.9089 7.40093L16.7756 6.78265H14.9756V14.0933H17.0589V9.13878C17.5506 8.49544 18.3839 8.61241 18.6423 8.70432V6.78265C18.3756 6.68239 17.4006 6.49858 16.9089 7.40093Z" fill="white"/>
<path fill-rule="evenodd" clip-rule="evenodd" d="M12.7409 4.96973L10.7076 5.40419L10.6992 12.0966C10.6992 13.3332 11.6242 14.2439 12.8576 14.2439C13.5409 14.2439 14.0409 14.1185 14.3159 13.9681V12.2721C14.0492 12.3807 12.7326 12.765 12.7326 11.5285V8.56241H14.3159V6.78278H12.7326L12.7409 4.96973Z" fill="white"/>
<path fill-rule="evenodd" clip-rule="evenodd" d="M7.10834 8.90485C7.10834 8.579 7.37501 8.45368 7.81667 8.45368C8.45001 8.45368 9.25001 8.64584 9.88334 8.9884V7.02496C9.19168 6.74924 8.50834 6.64062 7.81667 6.64062C6.125 6.64062 5 7.52626 5 9.00511C5 11.3111 8.16667 10.9435 8.16667 11.9377C8.16667 12.3221 7.83334 12.4474 7.36667 12.4474C6.675 12.4474 5.79167 12.1633 5.09167 11.779V13.7675C5.86667 14.1017 6.65 14.2437 7.36667 14.2437C9.10001 14.2437 10.2917 13.3832 10.2917 11.8876C10.2833 9.3978 7.10834 9.84062 7.10834 8.90485Z" fill="white"/>
<g clip-path="url(#clip0_3379_127437)">
<path d="M7.78411 19H32.2036C33.749 19 35.0001 20.251 35.0001 21.7964V31.1178C35.0001 32.6631 33.7491 33.9142 32.2036 33.9142H23.4466L24.6486 36.8577L19.3624 33.9142H7.79653C6.25118 33.9142 5.00009 32.6632 5.00009 31.1178V21.7964C4.98782 20.2633 6.23876 19 7.78411 19Z" fill="white"/>
<path d="M6.70884 21.5486C6.87957 21.3169 7.13567 21.1949 7.47713 21.1706C8.09908 21.1218 8.45274 21.4145 8.53811 22.0486C8.91616 24.5974 9.33079 26.7559 9.76987 28.5243L12.4406 23.4389C12.6845 22.9755 12.9893 22.7316 13.3552 22.7072C13.8918 22.6706 14.2211 23.0121 14.3552 23.7316C14.6601 25.3536 15.0503 26.7316 15.5137 27.9023C15.8308 24.8047 16.3674 22.5731 17.1235 21.195C17.3065 20.8535 17.5748 20.6828 17.9284 20.6584C18.2089 20.634 18.465 20.7194 18.6967 20.9023C18.9284 21.0852 19.0504 21.3169 19.0748 21.5974C19.087 21.8169 19.0504 21.9998 18.9528 22.1828C18.4772 23.0608 18.087 24.5365 17.7699 26.5851C17.465 28.573 17.3553 30.1218 17.4285 31.2315C17.4529 31.5364 17.4041 31.8047 17.2821 32.0364C17.1358 32.3047 16.9163 32.451 16.6358 32.4754C16.3187 32.4998 15.9894 32.3535 15.6724 32.0242C14.5382 30.8657 13.6358 29.134 12.9773 26.829C12.1846 28.39 11.5993 29.5608 11.2212 30.3413C10.5017 31.7193 9.89198 32.4266 9.37975 32.4632C9.05048 32.4876 8.76999 32.2071 8.52609 31.6217C7.90414 30.0241 7.23339 26.9388 6.51386 22.3657C6.46508 22.0486 6.53825 21.7681 6.70898 21.5486L6.70884 21.5486ZM32.9167 23.4632C32.4776 22.6949 31.8313 22.2315 30.9655 22.0485C30.7338 21.9997 30.5143 21.9754 30.3069 21.9754C29.1362 21.9754 28.185 22.5851 27.4411 23.8047C26.807 24.8412 26.4899 25.9876 26.4899 27.2436C26.4899 28.1827 26.685 28.9875 27.0753 29.6583C27.5143 30.4266 28.1606 30.89 29.0264 31.073C29.2581 31.1218 29.4777 31.1461 29.685 31.1461C30.8679 31.1461 31.8191 30.5364 32.5508 29.3168C33.1849 28.2681 33.502 27.1217 33.502 25.8657C33.5142 24.9145 33.3069 24.1218 32.9167 23.4632ZM31.3801 26.8413C31.2094 27.6461 30.9045 28.2436 30.4533 28.6462C30.0996 28.9633 29.7703 29.0974 29.4655 29.0364C29.1728 28.9755 28.9289 28.7194 28.746 28.2438C28.5996 27.8657 28.5264 27.4877 28.5264 27.134C28.5264 26.8291 28.5508 26.5242 28.6118 26.2438C28.7216 25.7438 28.9289 25.256 29.2581 24.7925C29.6606 24.1949 30.0874 23.951 30.5265 24.0364C30.8191 24.0974 31.063 24.3535 31.246 24.8291C31.3923 25.2071 31.4655 25.5852 31.4655 25.9388C31.4655 26.2559 31.4411 26.5608 31.3801 26.8413ZM25.2825 23.4632C24.8435 22.6949 24.1849 22.2315 23.3313 22.0485C23.0996 21.9997 22.8801 21.9754 22.6728 21.9754C21.502 21.9754 20.5509 22.5851 19.8069 23.8047C19.1728 24.8412 18.8557 25.9876 18.8557 27.2436C18.8557 28.1827 19.0508 28.9875 19.4411 29.6583C19.8801 30.4266 20.5265 30.89 21.3923 31.073C21.624 31.1218 21.8435 31.1461 22.0508 31.1461C23.2337 31.1461 24.1849 30.5364 24.9166 29.3168C25.5508 28.2681 25.8678 27.1217 25.8678 25.8657C25.8678 24.9145 25.6727 24.1218 25.2825 23.4632ZM23.7337 26.8413C23.563 27.6461 23.2581 28.2436 22.8069 28.6462C22.4532 28.9633 22.124 29.0974 21.8191 29.0364C21.5264 28.9755 21.2825 28.7194 21.0996 28.2438C20.9532 27.8657 20.8801 27.4877 20.8801 27.134C20.8801 26.8291 20.9045 26.5242 20.9654 26.2438C21.0752 25.7438 21.2825 25.256 21.6118 24.7925C22.0142 24.1949 22.441 23.951 22.8801 24.0364C23.1728 24.0974 23.4167 24.3535 23.5996 24.8291C23.7459 25.2071 23.8191 25.5852 23.8191 25.9388C23.8313 26.2559 23.7947 26.5608 23.7337 26.8413Z" fill="#6736A1"/>
</g>
<defs>
<clipPath id="clip0_3379_127437">
<rect width="30" height="17.9297" fill="white" transform="translate(5 19)"/>
</clipPath>
</defs>
</svg>

<svg width="40" height="40" fill="none" xmlns="http://www.w3.org/2000/svg"><path fill="#6736A1" d="M0 0h40v40H0z"/><path fill-rule="evenodd" clip-rule="evenodd" d="M35 10.467c0-2.139-1.033-3.826-3.008-3.826-1.983 0-3.183 1.687-3.183 3.81 0 2.514 1.416 3.784 3.45 3.784.991 0 1.741-.225 2.308-.543v-1.67c-.567.283-1.217.459-2.042.459-.808 0-1.525-.284-1.616-1.27h4.075c0-.109.016-.543.016-.744Zm-4.116-.793c0-.945.575-1.337 1.1-1.337.508 0 1.05.392 1.05 1.337h-2.15ZM25.59 6.64c-.816 0-1.341.385-1.633.652l-.108-.518h-1.833v9.742l2.083-.442.008-2.365c.3.217.742.526 1.475.526 1.492 0 2.85-1.203 2.85-3.851-.008-2.423-1.383-3.743-2.841-3.743Zm-.5 5.757c-.491 0-.783-.175-.983-.392l-.008-3.1c.217-.242.517-.41.992-.41.758 0 1.283.853 1.283 1.947 0 1.12-.517 1.955-1.283 1.955ZM19.15 6.147l2.091-.45V4l-2.092.443v1.704Z" fill="#fff"/><path d="M21.241 6.782H19.15v7.31h2.092v-7.31Z" fill="#fff"/><path fill-rule="evenodd" clip-rule="evenodd" d="m16.909 7.4-.133-.617h-1.8v7.31h2.083V9.14c.492-.644 1.325-.527 1.583-.435V6.783c-.266-.1-1.241-.284-1.733.618ZM12.74 4.97l-2.032.434-.009 6.693c0 1.236.925 2.147 2.159 2.147.683 0 1.183-.126 1.458-.276v-1.696c-.267.109-1.583.493-1.583-.744V8.563h1.583v-1.78h-1.583l.008-1.812ZM7.108 8.905c0-.326.267-.451.709-.451.633 0 1.433.192 2.066.534V7.025a5.483 5.483 0 0 0-2.066-.384C6.125 6.64 5 7.526 5 9.005c0 2.306 3.167 1.938 3.167 2.933 0 .384-.334.51-.8.51-.692 0-1.575-.285-2.275-.669v1.989a5.764 5.764 0 0 0 2.275.476c1.733 0 2.925-.86 2.925-2.356-.009-2.49-3.184-2.047-3.184-2.983Z" fill="#fff"/><g clip-path="url(#a)"><path d="M7.784 19h24.42A2.795 2.795 0 0 1 35 21.796v9.322a2.795 2.795 0 0 1-2.796 2.796h-8.757l1.202 2.944-5.287-2.944H7.797A2.795 2.795 0 0 1 5 31.118v-9.322A2.785 2.785 0 0 1 7.784 19Z" fill="#fff"/><path d="M6.709 21.549c.17-.232.427-.354.768-.378.622-.05.976.244 1.061.878.378 2.548.793 4.707 1.232 6.475l2.67-5.085c.245-.463.55-.707.915-.732.537-.036.866.305 1 1.025.305 1.622.695 3 1.159 4.17.317-3.097.853-5.329 1.61-6.707.183-.341.45-.512.804-.537.28-.024.537.061.769.244a.955.955 0 0 1 .378.695c.012.22-.025.403-.122.586-.476.878-.866 2.354-1.183 4.402-.305 1.988-.415 3.537-.341 4.646.024.305-.025.574-.147.805-.146.269-.366.415-.646.44-.317.024-.647-.123-.964-.452-1.134-1.158-2.036-2.89-2.695-5.195a229.184 229.184 0 0 0-1.756 3.512c-.72 1.378-1.329 2.086-1.841 2.122-.33.025-.61-.256-.854-.841-.622-1.598-1.293-4.683-2.012-9.256a1.039 1.039 0 0 1 .195-.817Zm26.208 1.914c-.44-.768-1.086-1.232-1.952-1.415a3.2 3.2 0 0 0-.658-.073c-1.17 0-2.122.61-2.866 1.83-.634 1.036-.951 2.183-.951 3.439 0 .939.195 1.744.585 2.414.44.769 1.086 1.232 1.951 1.415a3.2 3.2 0 0 0 .659.073c1.183 0 2.134-.61 2.866-1.83a6.535 6.535 0 0 0 .951-3.45c.012-.951-.195-1.744-.585-2.403Zm-1.537 3.378c-.17.805-.476 1.403-.927 1.805-.353.317-.683.451-.988.39-.292-.06-.536-.317-.719-.792a3.094 3.094 0 0 1-.22-1.11c0-.305.025-.61.086-.89.11-.5.317-.988.646-1.451.403-.598.83-.842 1.268-.757.293.061.537.317.72.793.146.378.22.756.22 1.11 0 .317-.025.622-.086.902Zm-6.098-3.378c-.439-.768-1.097-1.232-1.95-1.415a3.2 3.2 0 0 0-.66-.073c-1.17 0-2.121.61-2.865 1.83-.634 1.036-.951 2.183-.951 3.439 0 .939.195 1.744.585 2.414.44.769 1.085 1.232 1.951 1.415a3.2 3.2 0 0 0 .659.073c1.183 0 2.134-.61 2.866-1.83a6.534 6.534 0 0 0 .95-3.45c0-.951-.194-1.744-.585-2.403Zm-1.548 3.378c-.171.805-.476 1.403-.927 1.805-.354.317-.683.451-.988.39-.293-.06-.537-.317-.72-.792a3.094 3.094 0 0 1-.219-1.11c0-.305.024-.61.085-.89.11-.5.317-.988.647-1.451.402-.598.829-.842 1.268-.757.293.061.537.317.72.793.146.378.22.756.22 1.11.011.317-.025.622-.086.902Z" fill="#6736A1"/></g><defs><clipPath id="a"><path fill="#fff" transform="translate(5 19)" d="M0 0h30v17.93H0z"/></clipPath></defs></svg>
